X:1
T:James Gibb editions
T:Laudate Dominum - Lotti
T:#
%%score [ 1 2 3 4 ]
L:1/8
Q:1/4=96
M:2/2
K:C
V:1 treble nm="Soprano" snm="S"
V:2 treble nm="Alto" snm="A"
V:3 treble-8 nm="Tenor" snm="T"
V:4 bass nm="Bass" snm="B"
V:1
"^Laudate Dominum""^Antonio Lotti\n(1667-1740)" z8 | d8 | d2 (Bc) d2 c2 | B2 (GA) B2 B2 | c6 d2 | %5
w: |Lau-|da- te * Do- mi-|num, lau\- * da- te|Do- mi-|
 e3 d (c4- | c2 BA B2 cd | GA) B2 c4 | B8 | z8 | z8 | z8 | d4 B2 d2 | (c3 B A2 Bc | d3 c) B2 B2 | %15
w: num in san\-||* * ctis e-|jus,||||lau- da- te|e\- * * * *|* * um in|
 c2 e2 (A2 c2) | d6 d2 | d4 c2 c2 | B2 A2 (A2 ^G2) | A2 A2 ^c2 e2 | ^c2 A2 z2 A2 | ^c2 e2 c4 | %22
w: fir- ma- men\- *|to vir|tu- tis, vir-|tu- tis e\- *|jus, in fir- ma-|men- to, in|fir- ma- men-|
 d2 d2 d4- | d2 c2 B4 | ^c8 | z8 | A4 A2 c2 | A2 A2 A2 c2 | d4 d2 d2 | c2 c2 z2 c2 | A2 c2 _B4 | %31
w: to vir- tu\-|* tis e-|jus,||Lau- da- te|e- um in vir-|tu- ti- bus|e- jus, lau-|da- te e-|
 A4 z4 | z4 z2 A2 | A2 A2 A2 A2 | A3 A A4 | A2 d2 _B3 B | A4 A4 | A4 z2 B2 | B4 B4 | B2 BB B2 d2 | %40
w: um|se-|cun- dum mul- ti-|tu- di- nem|ma- gni- tu- di-|nis e-|jus. Lau-|da- te|e- um in so- no|
 B2 BB B2 d2 | B2 B2 z2 B2 | c2 (BA) (G3 A) | B4 B2 B2 | c3 c B2 B2 | A6 A2 | B8 | z8 | z8 | %49
w: tu- bae, in so- no|tu- bae, lau-|da- te * e\- *|um in psal-|te- ri- o et|ci- tha-|ra.|||
 z2 c2 d2 d2 | e2 E2 (G2 F2) | E4 z4 | z2 G2 c2 B2 | c2 e2 d4 | d6 d2 | B2 B2 c4 | A2 A2 d4- | %57
w: in tym- pa-|no et cho\- *|ro,|in tym- pa-|no et cho-|ro, lau-|da- te e-|um in chor\-|
 d4 c2 c2 | A3 (_B c2) A2 | _B3 B A2 A2 | (A2 GF G2) A2 | G4 A4 | G6 G2 | A4 z4 | z8 | A4 A2 G2 | %66
w: * dis, in|chor- dis * et|or- ga- no, et|or\- * * * ga-|no, et|or- ga-|no.||Lau- da- te|
 F4 E4 | z4 z2 A2 | d2 ^c2 d2 (DE) | F2 E2 (D2 dc | B2) A2 G4 | z4 z2 D2 | G2 ^F2 G4 | %73
w: e- um|in|cym- ba- lis be\- *|ne- so- nan\- * *|* ti- bus,|in|cym- ba- lis,|
 z2 A2 d2 ^c2 | d2 A2 B2 A2 | B2 B2 c2 d2 | c2 G2 c2 B2 | (e4 d4 | c3 c B4 | z2 B2 c2 c2 | %80
w: in cym- ba-|lis, in cym- ba-|lis, in cym- ba-|lis, be- ne- so-|nan\- *|* ti- bus,|lau- da- te|
 A4 G3 c | B3 B B4 | ccdd c2 B2 | ccdd c2 B2 | z2 c4 c2 | A3 A A4 | z2 d4 d2 | B3 B B4 | %88
w: e- um in|cym- ba- lis|ju- bi- la- ti- o- nis,|ju- bi- la- ti- o- nis:|o- mnis|spi- ri- tus,|o- mnis|spi- ri- tus|
 B2 c2 A2 A2 | G8- | G6 G2 | !fermata!G8 || z8 | z8 | z8 | c4 B2 G2 | A2 B2 c2 A2 | B2 G2 A2 B2) | %98
w: lau- det, lau- det|Do\-|* mi-|num.||||A\- * *|||
 c4 z4 | d4 c2 (A2 | B2 c2 d2 B2 | c2 A2 B4 | A4 G4 | ^F2 G4 F2) |[Q:1/4=94] G4 z4 | %105
w: men,|a- men, a\-|||||men,|
[Q:1/4=91] z2[Q:1/4=91] (G2[Q:1/4=89] F2 D2 |[Q:1/4=88] E8)[Q:1/4=87][Q:1/4=87][Q:1/4=86] | %107
w: a\- * *||
[Q:1/4=85] !fermata!D8[Q:1/4=84][Q:1/4=84][Q:1/4=84] |] %108
w: men.|
V:2
 z8 | z8 | z8 | G8 | G2 (EF) G2 F2 | E6 E2 | (D4 G3 F | E2) G2 G4 | G4 G4 | E2 G2 (F3 E | %10
w: |||Lau-|da- te * Do- mi-|num in|san\- * *|* ctis e-|jus, lau-|da- te e\- *|
 D2 EF G3 F) | E2 E2 F2 A2 | (D2 ^F2) G4 | G4 C2 (DE) | (F3 E) D2 D2 | G2 G2 (F2 E2) | F6 F2 | %17
w: |um in fir- ma-|men\- * to,|lau- da- te *|e\- * um in|fir- ma- men\- *|to vir-|
 E4 E2 E2 | F2 F2 E4 | E2 E2 A2 A2 | E4 E2 ^C2 | E2 A2 A4 | A2 F2 F4 | E4 E4 | E8 | z8 | F4 F2 A2 | %27
w: tu- tis, vir-|tu- tis e-|jus, in fir- ma-|men- to, in|fir- ma- men-|to vir- tu-|tis e-|jus.||Lau- da- te|
 F2 F2 F2 F2 | F4 F2 F2 | F2 F2 z2 A2 | F2 E2 (D3 E) | F4 z4 | z4 z2 F2 | F2 F2 E2 E2 | F3 F E4 | %35
w: e- um in vir-|tu- ti- bus|e- jus, lau-|da- te e\- *|um|se-|cun- dum mul- ti-|tu- di- nem|
 F2 F2 (D2 E2- | E)D D4 ^C2 | D4 z2 D2 | G4 G4 | G2 GG G2 G2 | G2 GG G2 G2 | G2 G2 z2 G2 | %42
w: ma- gni- tu\- *|* di- nis e-|jus. Lau-|da- te|e- um in so- no|tu- bae, in so- no|tu- bae, lau-|
 G2 ^F2 E4 | D4 G2 G2 | G3 G G2 G2 | (G2 ^FE F3) F | G4 D4 | B,2 D2 (E2 DC | D3 CDE F2- | %49
w: da- te e-|um in psal-|te- ri- o et|ci\- * * * tha-|ra. Lau-|da- te e\- * *||
 F2 E2 D4) | C4 z4 | z2 E2 G2 F2 | E2 E2 G2 F2 | G2 G2 G4 | G8 | z2 G2 G2 G2 | F4 F2 F2 | %57
w: |um|in tym- pa-|no, in tym- pa-|no et cho-|ro,|lau- da- te|e- um in|
 E4 E2 E2 | F4 F2 F2 | F3 G F2 F2 | (F2 ED E2) F2 | E4 F4 | (F2 ED E3) E | F4 A4 | A2 G2 F4 | %65
w: chor- dis, in|chor- dis et|or- ga- no, et|or- * * * ga-|no, et|or\- * * * ga|no. Lau-|da- te e-|
 E4 z4 | z4 z2 E2 | F2 E2 F4 | z8 | z8 | z4 z2 D2 | G2 ^F2 G2 (G,A,) | B,2 A,2 (G,A,B,C | %73
w: um|in|cym- ba- lis,|||in|cym- ba- lis be\- *|ne- so- nán\- * * *|
 D3 E ^F2) E2 | D2 ^F2 G2 A2 | G2 G2 G2 G2 | G2 (EF) G2 F2 | G8- | G2 G2 G4 | z2 G2 G2 G2 | %80
w: * * * ti-|bus, in cym- ba-|lis, in cym- ba-|lis be\- * ne- so-|nan\-|* ti- bus,|lau- da- te|
 F4 E3 G | G3 G G4 | GGGG G2 G2 | GGGG G2 G2 | z2 G4 G2 | F3 F F4 | z2 A4 A2 | G3 G G4 | %88
w: e- um in|cym- ba- lis|ju- bi- la- ti- o- nis,|ju- bi- la- ti- o- nis:|o- mnis|spi- ri- tus,|o- mnis|spi- ri- tus|
 G2 G2 F2 F2 | (F4 E4 | D6) D2 | !fermata!E8 || z8 | z8 | z8 | z4 (G4 | F2 D2 E2 ^F2 | G2 E2) D4 | %98
w: lau- det, lau- det|Do\- *|* mi-|num.||||A\-||* * men,|
 z4 G4 | ^F2 (D2 E2 F2 | G4 A2 GF | E2 F2 D2 E2- | E2 D2 B,2 C2 | D8) | D8 | z2 (C2 D4- | %106
w: a-|men, a\- * *|||||men,|a\- *|
 D2 CB, C4- | C2 B,A,) !fermata!B,4 |] %108
w: |* * * men.|
V:3
 d8 | d2 (Bc) d2 c2 | B2 (GA) B2 c2 | d2 e2 d2 d2 | (e3 d c2 BA | G3 (F G3) A | B3 c d4 | %7
w: Lau-|da- te * Do- mi-|num, lau\- * da- te|Do- mi- num in|san\- * * * *|* ctis, * in|san\- * *|
 e2) d2 e4 | d8 | c4 A2 c2 | (B3 A G2 AB | c3 B) A2 A2 | B2 d2 G2 B2 | (c2 e2) A4- | A2 A2 B2 d2 | %15
w: * ctis e-|jus,|lau- da- te|e\- * * * *|* * um in|fir- ma- men- to|e\- * jus,|* in fir- ma-|
 c2 c2 c4 | A2 A2 B2 d2 | ^G4 A2 c2 | d3 c B4 | ^c4 z2 A2 | ^c2 e2 c2 A2 | z2 A2 ^c2 e2 | %22
w: men- to e-|jus, in fir- ma-|men- to vir-|tu- tis e-|jus, in|fir- ma- men- to,|in fir- ma-|
 f2 d2 A4 | ^G2 A2 (A2 G2) | A8 | A4 A2 c2 | A4 A4 | z4 c2 A2 | _B4 B2 B2 | A2 A2 z4 | z8 | %31
w: men- to vir-|tu- tis e\- *|jus.|Lau- da- te|e- um|in vir-|tu- ti- bus|e- jus,||
 z2 c2 A2 c2 | _B4 A2 c2 | d2 d2 A2 e2 | d3 d ^c4 | A2 A2 _B3 G | F4 E4 | ^F4 z2 B2 | d4 d4 | %39
w: lau- da- te|e- um se-|cun- dum mul- ti-|tu- di- nem|ma- gni- tu- di-|nis e-|jus. Lau-|da- te|
 d2 dd d2 B2 | d2 dd d2 B2 | d2 d2 z2 d2 | e2 d4 c2 | B4 d2 d2 | e3 e d2 d2 | d6 d2 | d4 B4 | %47
w: e- um in so- no|tu- bae, in so- no|tu- bae, lau-|da- te e-|um in psal-|te- ri- o et|ci- tha-|ra. Lau-|
 G2 B2 (c4- | c2 BA Bcdc | B2 c4 B2) | c4 z4 | z2 c2 e2 d2 | c2 c2 c2 d2 | e2 c2 (c2 BA) | B8 | %55
w: da- te e\-|||um|in tym- pa-|no, in tym- pa-|no et cho\- * *|ro,|
 z2 d2 e2 e2 | c4 c2 B2 | ^G4 A2 A2 | c3 (_B A2) c2 | d4 c2 c2 | c6 c2 | c4 c4 | c6 c2 | c4 A4 | %64
w: lau- da- te|e- um in|chor- dis, in|chor- dis, * in|chor- dis et|or- ga-|no, et|or- ga-|no. Lau-|
 B2 ^c2 d4 | ^c2 c2 d2 e2 | (e2 d2) ^c2 A2 | d2 ^c2 d2 (DE) | F2 E2 (DEFG | A2 G2 ^F3) F | %70
w: da- te e-|um, lau- da- te|e\- * um in|cym- ba- lis be\- *|ne- so- nan\- * * *|* * * ti-|
 G2 d2 B3 c | d2 c2 B3 A | (G2 A2 B2) G2 | ^F4 z4 | z2 d2 d2 d2 | d2 d2 e2 d2 | e2 (ed) c2 d2 | %77
w: bus, in cym- ba-|lis be- ne- so|nan\- * * ti-|bus,|in cym- ba-|lis, in cym- ba-|lis be\- * ne- so-|
 (e2 dc B2 cd | e3 e d4 | z2 d2 e2 e2 | c4 c3 e | d3 d d4 | eedd e2 d2 | eedd e2 d2 | z2 e4 e2 | %85
w: nan\- * * * * *|* ti- bus,|lau- da- te|e- um in|cym- ba- lis|ju- bi- la- ti- o- nis,|ju- bi- la- ti- o- nis:|o- mnis|
 c3 c c4 | z2 A4 d2 | d3 d d4 | d2 e2 c2 d2 | B4 c4- | c2 BA B3) B | !fermata!c8 || (c4 B2 G2 | %93
w: spi- ri- tus,|o- mnis|spi- ri- tus|lau- det, lau- det|Do\- *|* * * * mi-|num.|A\- * *|
 A2 B2 c2 A2 | B2 c2 A2 B2 | cd e2) d4 | z8 | z4 d4 | c2 (A2 B2 ^c2 | d2 B2 =c4 | d2 e2 d4 | %101
w: ||* * * men,||a-|men, a\- * *|||
 c4 B4 | c2 d4 c2- | c2 B2 A4) | B2 (B2 A2 d2 | G8- | G8) | !fermata!G8 |] %108
w: |||men, a\- * *|||men.|
V:4
 z8 | z8 | G,8 | G,2 (E,F,) G,2 F,2 | E,2 (C,D,) E,2 B,,2 | C,3 D, E,3 F, | (G,6 A,B, | %7
w: ||Lau-|da- te * Do- mi-|num, lau\- * da- te|Do- mi- num in|san\- * *|
 C2) G,2 C,4 | G,8 | z8 | z8 | z8 | z4 G,4 | E,2 G,2 (F,3 E, | D,2 E,F, G,3 F,) | E,2 E,2 F,2 A,2 | %16
w: * ctis e-|jus,||||lau-|da- te e\- *||um in fir- ma-|
 D,4 D,2 D,2 | E,4 A,2 A,2 | D,2 D,2 E,4 | A,,4 A,4 | A,4 A,4 | A,4 A,,2 A,2 | D,4 D,4 | E,8 | %24
w: men- to vir-|tu- tis, vir-|tu- tis e-|jus, in|fir- ma-|men- to vir-|tu- tis|e-|
 A,,8 | F,4 F,2 A,2 | F,4 F,4 | z4 F,2 F,2 | _B,,3 C, (D,2 B,,2) | F,2 F,2 z4 | z8 | %31
w: jus.|Lau- da- te|e- um|in vir-|tu- ti- bus *|e- jus,||
 z2 A,2 F,2 E,2 | (D,3 E,) F,2 F,2 | D,2 D,2 ^C,2 C,2 | D,3 D, A,4 | F,2 F,2 G,3 G, | D,4 A,,4 | %37
w: lau- da- te|e\- * um se-|cun- dum mul- ti-|tu- di- nem|ma- gni- tu- di-|nis e-|
 D,4 z2 G,2 | G,4 G,4 | G,2 G,G, G,2 B,2 | G,2 G,G, G,2 B,2 | G,2 G,2 z2 G,2 | C,2 D,2 (E,3 ^F,) | %43
w: jus. Lau-|da- te|e- um in so- no|tu- bae, in so- no|tu- bae, lau-|da- te e\- *|
 G,4 G,2 G,2 | C3 C G,2 G,2 | D,6 D,2 | G,,8 | z8 | z8 | z2 C2 G,2 G,2 | C,2 C,2 (E,2 D,2) | %51
w: um in psal-|te- ri- o et|ci- tha-|ra.|||in tym- pa-|no et cho\- *|
 C,4 z4 | z2 C,2 E,2 D,2 | C,2 C,2 G,4 | G,8 | z2 G,2 E,2 E,2 | F,4 D,2 D,2 | E,4 A,2 A,2 | %58
w: ro,|in tym- pa-|no et cho-|ro,|lau- da- te|e- um in|chor- dis, in|
 F,4 F,2 F,2 | D,3 E, F,2 F,2 | C,6 C,2 | C,4 F,4 | C,6 C,2 | F,4 z4 | z8 | A,4 B,2 ^C2 | %66
w: chor- dis et|or- ga- no, et|or- ga-|no, et|or- ga-|no.||Lau- da- te|
 (D2 D,2) A,4 | z8 | z8 | z4 z2 D,2 | G,2 ^F,2 G,2 (G,,A,,) | B,,2 A,,2 (G,,2 G,^F, | %72
w: e\- * um|||in|cym- ba- lis be\- *|ne- so- nan\- * *|
 G,2 D,2 G,2) E,2 | D,4 z4 | z2 D,2 G,2 ^F,2 | G,2 G,2 C2 B,2 | C2 (C,D,) E,2 D,2 | %77
w: * * * ti-|bus,|in cym- ba-|lis, in cym- ba-|lis be\- * ne- so-|
 (C,D,E,F, G,2 A,B, | C2 C,2 G,4 | z2 G,2 E,2 E,2 | F,4 C,3 C, | G,3 G, G,4 | CCB,B, C2 G,2 | %83
w: nan\- * * * * * *|* ti- bus,|lau- da- te|e- um in|cym- ba- lis|ju- bi- la- ti- o- nis,|
 CCB,B, C2 G,2 | z2 E,4 E,2 | F,3 F, F,4 | z2 ^F,4 F,2 | G,3 G, G,4 | G,2 C2 F,2 F,2 | G,8- | %90
w: ju- bi- la- ti- o- nis:|o- mnis|spi- ri- tus,|o- mnis|spi- ri- tus|lau- det, lau- det|Do\-|
 G,6 G,2 | !fermata!C,8 || z4 G,4 | F,2 D,2 E,2 ^F,2 | G,2 E,2 =F,2 D,2 | C,4) G,4 | z8 | %97
w: * mi-|num.|A\-|||* men,||
 G,4 F,2 (D,2 | E,2 ^F,2 G,2 E,2) | D,4 A,4 | G,2 (E,2 F,2 G,2 | A,6 G,2 | F,6 E,2 | D,8) | %104
w: a- men, a\-||men, a-|men, a\- * *||||
 G,,2 (G,2 F,2 D,2 | E,4 B,,4 | C,8) | !fermata!G,,8 |] %108
w: men, a\- * *|||men.|

